images_elementary_svg/cmd/fr/sc_bold.svg

<svg viewBox="0 0 16 16" xmlns="http://www.w3.org/2000/svg" xmlns:xlink="http://www.w3.org/1999/xlink"><radialGradient id="a" cx="6" cy="3.41416" gradientTransform="matrix(.00000011 4.5658962 -3.2229854 .00000008 16.535503 -27.177495)" gradientUnits="userSpaceOnUse" r="3.726176"><stop offset="0" stop-color="#737373"/><stop offset=".262" stop-color="#636363"/><stop offset=".705" stop-color="#4b4b4b"/><stop offset="1" stop-color="#3f3f3f"/></radialGradient>

/&amp;amp;gt;<path d="m8.2717024 7.7102673h4.8603606l-.000811 6.4582877c-.344133.112733-.691232.216567-1.041299.3115-.350067.089-.714967.166133-1.0947.2314-.373799.05933-.768366.1068-1.1836989.1424-.4093997.0356-.8454995.0534-1.3082992.0534-.9730661 0-1.8363657-.1424-2.5898986-.4272-.7475996-.290733-1.3794993-.717933-1.895699-1.281599-.5102664-.5696-.8988995-1.269733-1.1658994-2.100399-.2669998-.8366-.4004997-1.800766-.4004997-2.8924987 0-1.0205328.1483332-1.9431656.4449997-2.7678985s.7327663-1.5248658 1.3082993-2.1003988c.5814663-.5814664 1.2934659-1.0264662 2.1359988-1.3349993.8484662-.3144665 1.8185657-.4716997 2.9102984-.4716997.6941997 0 1.3735656.074167 2.0380986.2224998.664533.1483333 1.2727.3411665 1.824499.5784997l-.916699 2.2071988c-.403467-.2017332-.860333-.3708331-1.370599-.5072997-.504333-.1364666-1.0353665-.2046999-1.5930995-.2046999-.6051997 0-1.1510661.1067999-1.6375992.3203998-.4805997.2076665-.8929662.504333-1.2370993.8899995s-.6081663.8514329-.7920995 1.3972993c-.1839333.5458663-.2758999 1.1540327-.2758999 1.824499 0 .6407996.0623 1.2281992.1868999 1.7621987.1305333.528067.3322665.984933.6051997 1.3706.2729332.385666.6229997.685299 1.0501994.898899.4331331.2136.9493328.3204 1.5485992.3204.3915997 0 .5013813-.0178.7683812-.0534.2729332-.0356.5280664-.07713.7654-.1246l.000811-2.6666589h-1.9441446z" fill="url(#a)" stroke="#000" stroke-opacity=".6" stroke-width="1.000784" transform="matrix(1.0287303 0 0 .97270125 -.009351 .000213)"/></svg>

<?xml version="1.0" encoding="UTF-8" standalone="no"?>
<svg
   xmlns:dc="http://purl.org/dc/elements/1.1/"
   xmlns:cc="http://creativecommons.org/ns#"
   xmlns:rdf="http://www.w3.org/1999/02/22-rdf-syntax-ns#"
   xmlns:svg="http://www.w3.org/2000/svg"
   xmlns="http://www.w3.org/2000/svg"
   xmlns:xlink="http://www.w3.org/1999/xlink"
   xmlns:sodipodi="http://sodipodi.sourceforge.net/DTD/sodipodi-0.dtd"
   xmlns:inkscape="http://www.inkscape.org/namespaces/inkscape"
   viewBox="0 0 16 16"
   version="1.1"
   id="svg13"
   sodipodi:docname="sc_bold.svg"
   inkscape:version="0.92.4 (unknown)"
   inkscape:export-filename="/home/rizmut/Dokumen/Rizmut/Github/libreoffice-style-elementary/images_elementary/cmd/fr/sc_bold.png"
   inkscape:export-xdpi="96"
   inkscape:export-ydpi="96"><metadata
   id="metadata19">
  <rdf:RDF>
    <cc:Work
       rdf:about="">
      <dc:format>image/svg+xml</dc:format>
      <dc:type
         rdf:resource="http://purl.org/dc/dcmitype/StillImage" />
      <dc:title />
    </cc:Work>
  </rdf:RDF>
</metadata>
<defs
   id="defs17">
  <radialGradient
     inkscape:collect="always"
     xlink:href="#a"
     id="radialGradient840"
     cx="6"
     cy="3.4141598"
     fx="6"
     fy="3.4141598"
     r="3.726176"
     gradientTransform="matrix(1.0640311e-7,4.5658962,-3.2229854,7.510807e-8,16.535503,-27.177495)"
     gradientUnits="userSpaceOnUse" />
  <radialGradient
     inkscape:collect="always"
     xlink:href="#a"
     id="radialGradient833"
     gradientUnits="userSpaceOnUse"
     gradientTransform="matrix(1.0640311e-7,4.5658962,-3.2229854,7.510807e-8,16.535503,-27.177495)"
     cx="6"
     cy="3.4141598"
     fx="6"
     fy="3.4141598"
     r="3.726176" />
</defs>
<sodipodi:namedview
   pagecolor="#ffffff"
   bordercolor="#666666"
   borderopacity="1"
   objecttolerance="10"
   gridtolerance="10"
   guidetolerance="10"
   inkscape:pageopacity="0"
   inkscape:pageshadow="2"
   inkscape:window-width="1366"
   inkscape:window-height="714"
   id="namedview15"
   showgrid="true"
   inkscape:zoom="22.627417"
   inkscape:cx="7.3127088"
   inkscape:cy="7.3535963"
   inkscape:window-x="0"
   inkscape:window-y="28"
   inkscape:window-maximized="1"
   inkscape:current-layer="svg13"
   inkscape:snap-global="true">
  <inkscape:grid
     type="xygrid"
     id="grid826" />
</sodipodi:namedview>
<radialGradient
   id="a"
   cx="11.375"
   cy="1.125"
   gradientTransform="matrix(-2.81612 0 0 -3.9403 43.408 3.466)"
   gradientUnits="userSpaceOnUse"
   r="5.154">
  <stop
     offset="0"
     stop-color="#737373"
     id="stop2" />
  <stop
     offset=".262"
     stop-color="#636363"
     id="stop4" />
  <stop
     offset=".705"
     stop-color="#4b4b4b"
     id="stop6" />
  <stop
     offset="1"
     stop-color="#3f3f3f"
     id="stop8" />
</radialGradient>

/&amp;gt;<g
   aria-label="G"
   transform="matrix(1.0287303,0,0,0.97270125,-0.00935087,2.1333403e-4)"
   style="font-style:normal;font-weight:normal;font-size:18.22719002px;line-height:1.25;font-family:sans-serif;letter-spacing:0px;word-spacing:0px;fill:url(#radialGradient840);fill-opacity:1;stroke:#000000;stroke-width:1.00078416;stroke-miterlimit:4;stroke-dasharray:none;stroke-opacity:0.6"
   id="text830">
  <path
     d="m 8.2717024,7.7102673 h 4.8603606 l -8.11e-4,6.4582877 c -0.344133,0.112733 -0.691232,0.216567 -1.041299,0.3115 -0.350067,0.089 -0.714967,0.166133 -1.0947,0.2314 -0.373799,0.05933 -0.768366,0.1068 -1.1836989,0.1424 -0.4093997,0.0356 -0.8454995,0.0534 -1.3082992,0.0534 -0.9730661,0 -1.8363657,-0.1424 -2.5898986,-0.4272 C 5.1657567,14.189322 4.533857,13.762122 4.0176573,13.198456 3.5073909,12.628856 3.1187578,11.928723 2.8517579,11.098057 2.5847581,10.261457 2.4512582,9.297291 2.4512582,8.2055583 c 0,-1.0205328 0.1483332,-1.9431656 0.4449997,-2.7678985 C 3.1929244,4.6129269 3.6290242,3.912794 4.2045572,3.337261 4.7860235,2.7557946 5.4980231,2.3107948 6.340556,2.0022617 7.1890222,1.6877952 8.1591217,1.530562 9.2508544,1.530562 c 0.6941997,0 1.3735656,0.074167 2.0380986,0.2224998 0.664533,0.1483333 1.2727,0.3411665 1.824499,0.5784997 L 12.196753,4.5387603 C 11.793286,4.3370271 11.33642,4.1679272 10.826154,4.0314606 10.321821,3.894994 9.7907875,3.8267607 9.2330545,3.8267607 c -0.6051997,0 -1.1510661,0.1067999 -1.6375992,0.3203998 C 7.1148556,4.354827 6.7024891,4.6514935 6.358356,5.03716 6.0142229,5.4228265 5.7501897,5.8885929 5.5662565,6.4344593 5.3823232,6.9803256 5.2903566,7.588492 5.2903566,8.2589583 c 0,0.6407996 0.0623,1.2281992 0.1868999,1.7621987 0.1305333,0.528067 0.3322665,0.984933 0.6051997,1.3706 0.2729332,0.385666 0.6229997,0.685299 1.0501994,0.898899 0.4331331,0.2136 0.9493328,0.3204 1.5485992,0.3204 0.3915997,0 0.5013813,-0.0178 0.7683812,-0.0534 0.2729332,-0.0356 0.5280664,-0.07713 0.7654,-0.1246 l 8.11e-4,-2.6666589 H 8.2717024 Z"
     style="font-style:normal;font-variant:normal;font-weight:bold;font-stretch:normal;font-family:'Droid Sans';-inkscape-font-specification:'Droid Sans Bold';fill:url(#radialGradient833);fill-opacity:1;stroke:#000000;stroke-width:1.00078416;stroke-miterlimit:4;stroke-dasharray:none;stroke-opacity:0.6"
     id="path828"
     inkscape:connector-curvature="0"
     sodipodi:nodetypes="ccccccscccssscsscccscssscscsccccc" />
</g>
</svg>
